Dominus_Dark_Funeral/symbolic/categories/applications-system-symbolic.svg

<svg xmlns="http://www.w3.org/2000/svg" width="24" height="24" version="1"><defs><linearGradient id="a"><stop offset="0"/><stop offset="1" stop-opacity="0"/></linearGradient><linearGradient id="b"><stop offset="0" stop-color="#d3d3d3"/><stop offset=".5" stop-color="#fff"/><stop offset="1" stop-color="#ededed"/></linearGradient></defs><g fill="gray"><path d="M20.98 14.61c-.58-.3-.7-.95-.26-1.43l2.35-2.63c.44-.49.26-.86-.4-.83l-1.56.07c-.65.03-1.08-.47-.94-1.11l.72-3.45c.14-.64-.2-.87-.76-.52l-1.31.84c-.56.36-1.18.14-1.38-.49l-1.1-3.34c-.2-.63-.61-.66-.91-.08l-.72 1.39c-.3.58-.95.7-1.44.26L10.65.94c-.49-.43-.87-.26-.84.4L9.9 2.9c.03.65-.48 1.08-1.12.94l-3.44-.72c-.65-.14-.88.2-.53.76l.85 1.31c.35.56.13 1.17-.5 1.38l-3.34 1.1c-.63.2-.66.6-.08.91l1.39.72c.58.3.7.95.26 1.43l-2.35 2.63c-.43.49-.26.86.4.83l1.56-.07c.65-.03 1.08.47.94 1.11l-.72 3.45c-.13.64.2.87.76.52l1.32-.84c.55-.36 1.17-.14 1.37.49l1.1 3.34c.2.63.61.66.92.08l.71-1.39c.3-.58.95-.7 1.44-.26l2.62 2.35c.5.43.87.26.84-.4l-.07-1.56c-.03-.65.47-1.08 1.1-.94l3.46.72c.64.14.87-.2.52-.76l-.84-1.31c-.36-.55-.14-1.17.49-1.38l3.34-1.1c.63-.2.66-.61.08-.91zm-9.04 3.23a5.84 5.84 0 1 1 0-11.68 5.84 5.84 0 0 1 0 11.68z"/><path d="M11.94 7.37a4.65 4.65 0 1 0 0 9.3 4.65 4.65 0 0 0 0-9.3zm0 5.98a1.34 1.34 0 1 1 0-2.68 1.34 1.34 0 0 1 0 2.68z"/></g></svg>

<?xml version="1.0" encoding="UTF-8" standalone="no"?>
<svg
   xmlns:dc="http://purl.org/dc/elements/1.1/"
   xmlns:cc="http://creativecommons.org/ns#"
   xmlns:rdf="http://www.w3.org/1999/02/22-rdf-syntax-ns#"
   xmlns:svg="http://www.w3.org/2000/svg"
   xmlns="http://www.w3.org/2000/svg"
   xmlns:sodipodi="http://sodipodi.sourceforge.net/DTD/sodipodi-0.dtd"
   xmlns:inkscape="http://www.inkscape.org/namespaces/inkscape"
   width="24"
   height="24"
   version="1"
   id="svg22"
   sodipodi:docname="applications-system-symbolic.svg"
   inkscape:version="0.92.4 (5da689c313, 2019-01-14)">
  <metadata
     id="metadata26">
    <rdf:RDF>
      <cc:Work
         rdf:about="">
        <dc:format>image/svg+xml</dc:format>
        <dc:type
           rdf:resource="http://purl.org/dc/dcmitype/StillImage" />
        <dc:title></dc:title>
      </cc:Work>
    </rdf:RDF>
  </metadata>
  <sodipodi:namedview
     pagecolor="#ffffff"
     bordercolor="#666666"
     borderopacity="1"
     objecttolerance="10"
     gridtolerance="10"
     guidetolerance="10"
     inkscape:pageopacity="0"
     inkscape:pageshadow="2"
     inkscape:window-width="1112"
     inkscape:window-height="480"
     id="namedview24"
     showgrid="false"
     inkscape:zoom="9.8333333"
     inkscape:cx="1.0677966"
     inkscape:cy="12"
     inkscape:window-x="0"
     inkscape:window-y="25"
     inkscape:window-maximized="0"
     inkscape:current-layer="svg22" />
  <defs
     id="defs14">
    <linearGradient
       id="a">
      <stop
         offset="0"
         id="stop2" />
      <stop
         offset="1"
         stop-opacity="0"
         id="stop4" />
    </linearGradient>
    <linearGradient
       id="b">
      <stop
         offset="0"
         stop-color="#d3d3d3"
         id="stop7" />
      <stop
         offset=".5"
         stop-color="#fff"
         id="stop9" />
      <stop
         offset="1"
         stop-color="#ededed"
         id="stop11" />
    </linearGradient>
  </defs>
  <g
     id="g20"
     style="fill:#808080">
    <path
       d="m 20.98,14.61 c -0.58,-0.3 -0.7,-0.95 -0.26,-1.43 l 2.35,-2.63 c 0.44,-0.49 0.26,-0.86 -0.4,-0.83 L 21.11,9.79 C 20.46,9.82 20.03,9.32 20.17,8.68 L 20.89,5.23 C 21.03,4.59 20.69,4.36 20.13,4.71 L 18.82,5.55 C 18.26,5.91 17.64,5.69 17.44,5.06 L 16.34,1.72 C 16.14,1.09 15.73,1.06 15.43,1.64 l -0.72,1.39 c -0.3,0.58 -0.95,0.7 -1.44,0.26 L 10.65,0.94 C 10.16,0.51 9.78,0.68 9.81,1.34 L 9.9,2.9 C 9.93,3.55 9.42,3.98 8.78,3.84 L 5.34,3.12 C 4.69,2.98 4.46,3.32 4.81,3.88 L 5.66,5.19 C 6.01,5.75 5.79,6.36 5.16,6.57 L 1.82,7.67 C 1.19,7.87 1.16,8.27 1.74,8.58 L 3.13,9.3 c 0.58,0.3 0.7,0.95 0.26,1.43 l -2.35,2.63 c -0.43,0.49 -0.26,0.86 0.4,0.83 L 3,14.12 c 0.65,-0.03 1.08,0.47 0.94,1.11 l -0.72,3.45 c -0.13,0.64 0.2,0.87 0.76,0.52 L 5.3,18.36 C 5.85,18 6.47,18.22 6.67,18.85 l 1.1,3.34 c 0.2,0.63 0.61,0.66 0.92,0.08 L 9.4,20.88 c 0.3,-0.58 0.95,-0.7 1.44,-0.26 l 2.62,2.35 c 0.5,0.43 0.87,0.26 0.84,-0.4 l -0.07,-1.56 c -0.03,-0.65 0.47,-1.08 1.1,-0.94 l 3.46,0.72 c 0.64,0.14 0.87,-0.2 0.52,-0.76 l -0.84,-1.31 c -0.36,-0.55 -0.14,-1.17 0.49,-1.38 l 3.34,-1.1 c 0.63,-0.2 0.66,-0.61 0.08,-0.91 z m -9.04,3.23 a 5.84,5.84 0 1 1 0,-11.68 5.84,5.84 0 0 1 0,11.68 z"
       id="path16"
       inkscape:connector-curvature="0" />
    <path
       d="m 11.94,7.37 a 4.65,4.65 0 1 0 0,9.3 4.65,4.65 0 0 0 0,-9.3 z m 0,5.98 a 1.34,1.34 0 1 1 0,-2.68 1.34,1.34 0 0 1 0,2.68 z"
       id="path18"
       inkscape:connector-curvature="0" />
  </g>
</svg>
